src/fretsonfire/data/stage_audience1.svg

<?xml version="1.0" encoding="UTF-8" standalone="no"?>
<!-- Created with Inkscape (http://www.inkscape.org/) -->

<svg
   width="278.27109"
   height="247.72635"
   id="svg3249"
   sodipodi:version="0.32"
   inkscape:version="1.4 (e7c3feb100, 2024-10-09)"
   sodipodi:docname="stage_audience1.svg"
   inkscape:output_extension="org.inkscape.output.svg.inkscape"
   version="1.1"
   xmlns:inkscape="http://www.inkscape.org/namespaces/inkscape"
   xmlns:sodipodi="http://sodipodi.sourceforge.net/DTD/sodipodi-0.dtd"
   xmlns="http://www.w3.org/2000/svg"
   xmlns:svg="http://www.w3.org/2000/svg"
   xmlns:rdf="http://www.w3.org/1999/02/22-rdf-syntax-ns#"
   xmlns:cc="http://creativecommons.org/ns#"
   xmlns:dc="http://purl.org/dc/elements/1.1/">
  <defs
     id="defs3251" />
  <sodipodi:namedview
     id="base"
     pagecolor="#ffffff"
     bordercolor="#666666"
     borderopacity="1.0"
     gridtolerance="10000"
     guidetolerance="10"
     objecttolerance="10"
     inkscape:pageopacity="0.0"
     inkscape:pageshadow="2"
     inkscape:zoom="0.35"
     inkscape:cx="335.71429"
     inkscape:cy="600"
     inkscape:document-units="px"
     inkscape:current-layer="layer1"
     inkscape:window-width="1239"
     inkscape:window-height="761"
     inkscape:window-x="427"
     inkscape:window-y="244"
     inkscape:showpageshadow="2"
     inkscape:pagecheckerboard="0"
     inkscape:deskcolor="#d1d1d1"
     inkscape:window-maximized="0" />
  <metadata
     id="metadata3254">
    <rdf:RDF>
      <cc:Work
         rdf:about="">
        <dc:format>image/svg+xml</dc:format>
        <dc:type
           rdf:resource="http://purl.org/dc/dcmitype/StillImage" />
      </cc:Work>
    </rdf:RDF>
  </metadata>
  <g
     inkscape:label="Layer 1"
     inkscape:groupmode="layer"
     id="layer1"
     transform="translate(139.13522,122.92949)">
    <g
       id="yleiso1"
       transform="matrix(0.7844778,0,0,0.7844778,-1023.124,-443.46103)"
       style="fill:#000000"
       inkscape:export-filename="H:\new\rect2273.png"
       inkscape:export-xdpi="90"
       inkscape:export-ydpi="90">
      <path
         style="fill:#000000;fill-opacity:1"
         d="m 1181.224,723.79257 c 17.8661,-5.1827 3.8156,-26.068 6.1451,-38.9613 -2.6811,-18.56792 -15.9987,-33.39896 -20.3878,-51.57126 -6.8606,-15.87369 -8.1323,-33.33072 -13.6211,-49.48749 -4.5966,-12.71726 -9.3908,-25.46798 -16.5487,-36.62423 -8.2626,-12.91413 -13.2192,-27.92799 -7.4933,-43.22144 2.7035,-18.14405 7.7047,-35.78277 10.4398,-53.93215 7.4171,-11.14202 -5.8674,-36.22176 5.2186,-41.10752 -2.3197,22.42403 5.0015,2.60799 11.9276,11.6082 7.0053,-5.59071 5.4872,1.85751 8.2299,3.91882 5.932,-16.05448 9.7357,-3.85379 2.8631,5.00313 -9.8818,12.56195 -16.6266,32.14007 -15.296,48.89211 -1.4747,7.65925 1.4117,26.30935 3.6016,7.87451 2.6364,-8.08828 3.9759,7.07011 6.1598,7.5432 -13.0443,13.63184 20.3862,-2.18868 6.6467,10.94557 -3.039,8.74305 -19.6494,14.16534 -10.5833,23.66988 9.7308,11.67224 15.9374,26.7058 28.0739,36.1503 4.168,-0.62987 17.2037,-10.21636 14.9916,-15.40038 -3.7473,-12.40615 -10.4687,-27.14869 3.4638,-38.99508 11.3759,-6.02073 27.7425,-16.02154 38.4941,-5.54071 3.1119,16.39526 10.7156,33.21291 6.8445,50.16753 -1.9278,7.23379 -10.0675,25.98563 4.5899,18.54624 16.5134,-6.70982 20.1994,-21.1921 21.762,-37.42171 2.7436,-15.10347 11.0587,-31.98909 2.3918,-46.56641 -5.3185,-7.59752 -4.9737,-18.57102 2.3855,-6.93359 4.5245,-4.57537 5.5908,-33.1298 8.0527,-13.59432 1.503,4.2079 6.7245,-11.21855 7.2771,2.5917 12.0837,11.81526 0.4373,26.77552 1.5752,40.85819 -0.014,7.78552 -4.7837,31.21381 7.5539,16.0691 11.9958,-9.6748 14.597,-25.80379 23.3684,-37.95453 8.3733,-15.34917 16.6062,-32.68858 15.9268,-50.43155 1.9069,-10.49015 -7.0382,-31.20329 6.6909,-20.54154 -0.2582,-10.75897 20.2058,-15.99327 6.9602,-3.43085 -6.5561,15.27727 21.0159,-20.22468 11.6813,1.41398 -6.6548,5.39657 -5.312,15.53618 5.7754,2.9525 6.4909,1.94151 -10.0792,20.7174 -11.8877,28.74115 -11.2917,20.12314 -14.4477,43.50898 -22.3348,64.94192 -5.8098,15.78781 -13.6934,29.6345 -22.3551,43.97912 -9.5882,15.87913 -19.7814,31.59179 -31.1869,46.15679 -8.9458,10.99517 14.8617,1.14758 21.0201,6.78637 12.518,-7.87375 29.385,-1.07316 31.7442,13.9051 8.5354,6.87189 -2.959,27.20699 4.826,28.253 6.9599,-8.35669 30.6898,-10.22278 16.3911,-23.6599 -4.8799,-13.60995 -13.4899,-32.95924 2.9589,-42.5777 18.9802,-11.06226 29.1286,12.4481 34.5443,24.513 -1.1144,6.3124 -10.9945,24.16482 1.2989,23.0916 11.9703,5.11124 17.1415,-2.56675 9.7766,-12.99185 -5.6125,-7.61373 -1.994,-15.69956 2.4401,-3.88548 5.3211,8.43408 -3.2996,-25.65986 4.9774,-6.97215 1.2142,-0.66102 4.7324,-10.09149 5.0899,1.39026 1.3293,10.43455 4.5795,7.41882 7.2281,0.22402 3.133,9.794 -0.6183,21.94637 3.857,31.04505 15.1548,17.0439 34.661,30.4834 46.3055,50.3897 2.0219,10.6027 -2.3476,23.8758 -9.9945,30.7373 -96.6193,-0.1457 -193.2469,0.4071 -289.8601,-0.5562 z m 273.9725,-30.6938 c -5.4576,-7.6635 -15.9194,-5.3671 -3.5491,0.3557 0.497,0.7237 3.5906,1.4873 3.5491,-0.3557 z m -137.0451,-21.3848 c 8.1886,-16.11829 -15.8898,-22.27477 -13.8783,-38.63465 -0.2795,-7.03902 -1.2234,-20.4328 -8.3873,-7.61676 -8.7788,6.78734 8.6785,17.01782 2.351,27.10748 1.7752,8.92004 -7.3166,21.13593 7.9872,20.12463 3.789,1.2155 9.1084,3.1197 11.9274,-0.9807 z"
         id="path2504"
         sodipodi:nodetypes="ccccccccccccccccccccccccccccccccccccsscccccccccccccccccccccccccc" />
    </g>
  </g>
</svg>

<?xml version="1.0" encoding="UTF-8" standalone="no"?>
<!-- Created with Inkscape (http://www.inkscape.org/) -->
<svg
   xmlns:dc="http://purl.org/dc/elements/1.1/"
   xmlns:cc="http://web.resource.org/cc/"
   xmlns:rdf="http://www.w3.org/1999/02/22-rdf-syntax-ns#"
   xmlns:svg="http://www.w3.org/2000/svg"
   xmlns="http://www.w3.org/2000/svg"
   xmlns:sodipodi="http://sodipodi.sourceforge.net/DTD/sodipodi-0.dtd"
   xmlns:inkscape="http://www.inkscape.org/namespaces/inkscape"
   width="744.09448819"
   height="1052.3622047"
   id="svg3249"
   sodipodi:version="0.32"
   inkscape:version="0.44+devel"
   sodipodi:docbase="D:\FretsonFire\FretsOnFire-svn\trunk\data"
   sodipodi:docname="stage_audience1.svg"
   inkscape:output_extension="org.inkscape.output.svg.inkscape">
  <defs
     id="defs3251" />
  <sodipodi:namedview
     id="base"
     pagecolor="#ffffff"
     bordercolor="#666666"
     borderopacity="1.0"
     gridtolerance="10000"
     guidetolerance="10"
     objecttolerance="10"
     inkscape:pageopacity="0.0"
     inkscape:pageshadow="2"
     inkscape:zoom="0.35"
     inkscape:cx="194.91167"
     inkscape:cy="786.2608"
     inkscape:document-units="px"
     inkscape:current-layer="layer1"
     inkscape:window-width="853"
     inkscape:window-height="619"
     inkscape:window-x="427"
     inkscape:window-y="288" />
  <metadata
     id="metadata3254">
    <rdf:RDF>
      <cc:Work
         rdf:about="">
        <dc:format>image/svg+xml</dc:format>
        <dc:type
           rdf:resource="http://purl.org/dc/dcmitype/StillImage" />
      </cc:Work>
    </rdf:RDF>
  </metadata>
  <g
     inkscape:label="Layer 1"
     inkscape:groupmode="layer"
     id="layer1">
    <g
       id="yleiso1"
       transform="matrix(0.7844778,0,0,0.7844778,-1023.124,-443.46103)"
       style="fill:#000000"
       inkscape:export-filename="H:\new\rect2273.png"
       inkscape:export-xdpi="90"
       inkscape:export-ydpi="90">
      <path
         style="fill:#000000;fill-opacity:1"
         d="M 1181.224,723.79257 C 1199.0901,718.60987 1185.0396,697.72457 1187.3691,684.83127 C 1184.688,666.26335 1171.3704,651.43231 1166.9813,633.26001 C 1160.1207,617.38632 1158.849,599.92929 1153.3602,583.77252 C 1148.7636,571.05526 1143.9694,558.30454 1136.8115,547.14829 C 1128.5489,534.23416 1123.5923,519.2203 1129.3182,503.92685 C 1132.0217,485.7828 1137.0229,468.14408 1139.758,449.9947 C 1147.1751,438.85268 1133.8906,413.77294 1144.9766,408.88718 C 1142.6569,431.31121 1149.9781,411.49517 1156.9042,420.49538 C 1163.9095,414.90467 1162.3914,422.35289 1165.1341,424.4142 C 1171.0661,408.35972 1174.8698,420.56041 1167.9972,429.41733 C 1158.1154,441.97928 1151.3706,461.5574 1152.7012,478.30944 C 1151.2265,485.96869 1154.1129,504.61879 1156.3028,486.18395 C 1158.9392,478.09567 1160.2787,493.25406 1162.4626,493.72715 C 1149.4183,507.35899 1182.8488,491.53847 1169.1093,504.67272 C 1166.0703,513.41577 1149.4599,518.83806 1158.526,528.3426 C 1168.2568,540.01484 1174.4634,555.0484 1186.5999,564.4929 C 1190.7679,563.86303 1203.8036,554.27654 1201.5915,549.09252 C 1197.8442,536.68637 1191.1228,521.94383 1205.0553,510.09744 C 1216.4312,504.07671 1232.7978,494.0759 1243.5494,504.55673 C 1246.6613,520.95199 1254.265,537.76964 1250.3939,554.72426 C 1248.4661,561.95805 1240.3264,580.70989 1254.9838,573.2705 C 1271.4972,566.56068 1275.1832,552.0784 1276.7458,535.84879 C 1279.4894,520.74532 1287.8045,503.8597 1279.1376,489.28238 C 1273.8191,481.68486 1274.1639,470.71136 1281.5231,482.34879 C 1286.0476,477.77342 1287.1139,449.21899 1289.5758,468.75447 C 1291.0788,472.96237 1296.3003,457.53592 1296.8529,471.34617 C 1308.9366,483.16143 1297.2902,498.12169 1298.4281,512.20436 C 1298.4145,519.98988 1293.6444,543.41817 1305.982,528.27346 C 1317.9778,518.59866 1320.579,502.46967 1329.3504,490.31893 C 1337.7237,474.96976 1345.9566,457.63035 1345.2772,439.88738 C 1347.1841,429.39723 1338.239,408.68409 1351.9681,419.34584 C 1351.7099,408.58687 1372.1739,403.35257 1358.9283,415.91499 C 1352.3722,431.19226 1379.9442,395.69031 1370.6096,417.32897 C 1363.9548,422.72554 1365.2976,432.86515 1376.385,420.28147 C 1382.8759,422.22298 1366.3058,440.99887 1364.4973,449.02262 C 1353.2056,469.14576 1350.0496,492.5316 1342.1625,513.96454 C 1336.3527,529.75235 1328.4691,543.59904 1319.8074,557.94366 C 1310.2192,573.82279 1300.026,589.53545 1288.6205,604.10045 C 1279.6747,615.09562 1303.4822,605.24803 1309.6406,610.88682 C 1322.1586,603.01307 1339.0256,609.81366 1341.3848,624.79192 C 1349.9202,631.66381 1338.4258,651.99891 1346.2108,653.04492 C 1353.1707,644.68823 1376.9006,642.82214 1362.6019,629.38502 C 1357.722,615.77507 1349.112,596.42578 1365.5608,586.80732 C 1384.541,575.74506 1394.6894,599.25542 1400.1051,611.32032 C 1398.9907,617.63272 1389.1106,635.48514 1401.404,634.41192 C 1413.3743,639.52316 1418.5455,631.84517 1411.1806,621.42007 C 1405.5681,613.80634 1409.1866,605.72051 1413.6207,617.53459 C 1418.9418,625.96867 1410.3211,591.87473 1418.5981,610.56244 C 1419.8123,609.90142 1423.3305,600.47095 1423.688,611.9527 C 1425.0173,622.38725 1428.2675,619.37152 1430.9161,612.17672 C 1434.0491,621.97072 1430.2978,634.12309 1434.7731,643.22177 C 1449.9279,660.26567 1469.4341,673.70517 1481.0786,693.61147 C 1483.1005,704.21417 1478.731,717.48727 1471.0841,724.34877 C 1374.4648,724.20307 1277.8372,724.75587 1181.224,723.79257 z M 1455.1965,693.09877 C 1449.7389,685.43527 1439.2771,687.73167 1451.6474,693.45447 C 1452.1444,694.17817 1455.238,694.94177 1455.1965,693.09877 z M 1318.1514,671.71397 C 1326.34,655.59568 1302.2616,649.4392 1304.2731,633.07932 C 1303.9936,626.0403 1303.0497,612.64652 1295.8858,625.46256 C 1287.107,632.2499 1304.5643,642.48038 1298.2368,652.57004 C 1300.012,661.49008 1290.9202,673.70597 1306.224,672.69467 C 1310.013,673.91017 1315.3324,675.81437 1318.1514,671.71397 z "
         id="path2504"
         sodipodi:nodetypes="ccccccccccccccccccccccccccccccccccccsscccccccccccccccccccccccccc" />
    </g>
  </g>
</svg>
